!!!COM:	Martini, Johannes
!!!CDT:	~1440///-~1497//
!!!OTL:	De la bonne chiere
!!!AGN:	Song; Chanson
!!!SCT:	Mar3003
!!!SCA:	Mar3003
!!!voices:	3
**kern	**kern	**kern
*staff3	*staff2	*staff1
*Ivox	*Ivox	*Ivox
*I"Bassus	*I"Tenor	*I"Cantus
*I'B	*I'T	*I'Cn
*clefF4	*clefGv2	*clefG2
*k[]	*k[]	*k[]
*M2/1	*M2/1	*M2/1
*met(C|)	*met(C|)	*met(C|)
=1-	=1-	=1-
1.A	0r	0r
4G\	.	.
4F\	.	.
=2	=2	=2
1E	0r	0r
1E	.	.
=3	=3	=3
1F	1.A	0r
1A	.	.
.	4G/	.
.	4F/	.
=4	=4	=4
1.G	1E	0r
.	1E	.
4F\	.	.
4E\	.	.
=5	=5	=5
0D	1F	1.a
.	1A	.
.	.	4g/
.	.	4f/
=6	=6	=6
1r	1.G	1e
1C	.	1e
.	4F/	.
.	4E/	.
=7	=7	=7
1D	0D	1f
1F	.	1a
=8	=8	=8
1E	1r	1.g
1G	1C	.
.	.	4f/
.	.	4e/
=9	=9	=9
1.F	1.D	0d
[2D\	[2F/	.
=10	=10	=10
2D\]	2F/]	1r
4C/	2G/	.
4BB/	.	.
1AA	1A	1c
=11	=11	=11
2r	1D	1.d
1D	.	.
.	2.F/	.
[2A\	.	[2f/
.	4G/	.
=12	=12	=12
2A\]	2A/	2f/]
2G\	2B\	2g/
2F\	2c\	1a
2D\	[2d\	.
=13	=13	=13
2F\	2d\]	1d
2G\	4c\	.
.	4B\	.
[1D	2A/	2.f/
.	[2d\	.
.	.	4g/
=14	=14	=14
1D]	4d\]	2a/
.	4c\	.
.	2d\	2b\
2r	2e\	2cc\
[2D\	2f\	[2dd\
=15	=15	=15
2D\]	2d\	2dd\]
1A	2e\	4cc\
.	.	4b\
.	2c\	2a/
[2G\	[2d\	[2b\
=16	=16	=16
2G\]	2d\]	4b\]
.	.	4a/
2F\	2A/	1a
1E	1B	.
.	.	2g#i/
=17	=17	=17
1r	0A	0a
1AA	.	.
=18	=18	=18
1BB	1r	1d
2C/	1A	1r
[2D\	.	.
=19	=19	=19
2D\]	1B	0r
4C/	.	.
4BB/	.	.
2AA/	2c\	.
[2D\	[2d\	.
=20	=20	=20
1D]	2d\]	1d
.	4c\	.
.	4B\	.
1A	2A/	1e
.	2c\	.
=21	=21	=21
2D\	2d\	2f/
2.C/	1e	1g
4D\	.	.
4E\	4d\	4f/
4F\	4c\	4e/
=22	=22	=22
2G\	2B\	2d/
2F\	2d\	2f/
2E\	2e\	2g/
[2D\	[2f\	[2a/
=23	=23	=23
4D\]	2f\]	2a/]
4E\	.	.
4F\	4e\	4g/
4G\	4d\	4f/
1A	1c	1e
=24	=24	=24
2D\	2d\	1d
2F\	2D/	.
2G\	2E/	[1c
[2A\	[2F/	.
=25	=25	=25
2A\]	2F/]	2c/]
4G\	4E/	2d/
4F\	4D/	.
1G	1C	1e
=26	=26	=26
2.F\	1D	2.f/
4G\	.	4e/
1A	1F	[1d
=27	=27	=27
0AA	0E	1d]
.	.	1c#i
=28	=28	=28
0A;	0D;	0d;
=29	=29	=29
1.F	0r	0r
4E\	.	.
4D\	.	.
=30	=30	=30
1E	0r	0r
1E	.	.
=31	=31	=31
1D	1.F	0r
2r	.	.
[2d\	4E/	.
.	4D/	.
=32	=32	=32
2d\]	1E	0r
4c#i\	.	.
4B\	.	.
1c#i	1E	.
=33	=33	=33
1d	1D	1.f
2D\	1A	.
2F\	.	4e/
.	.	4d/
=34	=34	=34
2E\	1G	1e
2.C/	.	.
.	1c	1e
4D\	.	.
4E\	.	.
4F\	.	.
=35	=35	=35
2.G\	2B\	1d
.	2.d\	.
4F\	.	.
2D\	.	1a
.	4c\	.
2F\	4B\	.
.	4A/	.
=36	=36	=36
1E	1B	1g
2AA/	1A	1cc
2A\	.	.
=37	=37	=37
2G\	1r	2b\
2.B-i\	.	2.dd\
.	[1d	.
4A\	.	4cc\
4G\	.	4b\
4F\	.	4a/
=38	=38	=38
1G	1d]	1b
1A	1c	[1a
=39	=39	=39
0D	1d	1a]
.	1f	[1dd
=40	=40	=40
0A	0e	1dd]
.	.	1cc#i
=41	=41	=41
2.B-i\	2r	1dd
.	1d	.
4A\	.	.
2F\	.	2r
2A\	2c\	2a/
=42	=42	=42
2G\	2d\	2b\
2F\	2A/	2cc\
2E\	2B\	1g
2C/	2c\	.
=43	=43	=43
2E\	2.G/	2r
2G\	.	2g/
.	4F/	.
2.F\	1D	2a/
.	.	2b-i\
4E\	.	.
=44	=44	=44
1D	2r	1f
.	2F/	.
2E\	2G/	2r
2D\	2A/	2f/
=45	=45	=45
2C/	1E	2g/
2AA/	.	2a/
1C	2r	1e
.	2E/	.
=46	=46	=46
2D\	2F/	2r
2C/	2G/	2e/
2F\	2D/	2f/
2E\	[2G/	2g/
=47	=47	=47
2.G\	4G/]	1d
.	4A/	.
.	4B\	.
4F\	4c\	.
4D\	2d\	2r
4E\	.	.
4F\	2A/	2f/
4G\	.	.
=48	=48	=48
2A\	2c\	2e/
2D\	2d\	1a
1E	1B	.
.	.	2g#i/
=49	=49	=49
1F	2A/	1a
.	1d	.
2G\	.	2b\
[2A\	2c\	2cc\
=50	=50	=50
2A\]	1f	2a/
2F\	.	1dd
2G\	2d\	.
2E\	2e\	2g/
=51	=51	=51
2F\	2c\	2a/
2D\	1d	2f/
1G	.	1b-i
.	2G/	.
=52	=52	=52
2D\	2A/	2f/
2E\	2G/	2g/
2C/	1c	2e/
[2F\	.	[2a/
=53	=53	=53
2F\]	2F/	2a/]
2C/	2G/	2e/
2D\	2F/	2f/
[2G\	[2B-i\	2d/
=54	=54	=54
2G\]	2B-i\]	1g
2C/	1A	.
2D\	.	2f/
2E\	2G/	[2e/
=55	=55	=55
2AA/	2A/	4e/]
.	.	4d/
2D\	2F/	1d
1AA	1E	.
.	.	2c#i/
=56	=56	=56
0Al	0Dl	0dl
==	==	==
*-	*-	*-
!!!RDF**kern: l=long note in original notation
!!!RDF**kern: i=editorial accidental
!!!ENC:	Chris Gage 10-30-2014
!!!END:	2015/02/26/
!!!EED:	Jesse Rodin
!!!EEV:	2015/03/05/
!!!ONB:	Translated from MusicXML and edited on 2015/03/05/ by Craig Sapp
!!muse2ps: C^@{COM}^i2I150v95,95,150Q16
